front/src/Assets/image/payment/wallet.svg

<svg width="35" height="31" viewBox="0 0 35 31" fill="none" xmlns="http://www.w3.org/2000/svg">
<path fill-rule="evenodd" clip-rule="evenodd" d="M1.29535 1.00368C0.416672 1.88236 0.416672 3.29657 0.416672 6.125V24.875C0.416672 27.7034 0.416672 29.1176 1.29535 29.9963C2.17403 30.875 3.58824 30.875 6.41667 30.875H28.5833C31.4118 30.875 32.826 30.875 33.7047 29.9963C34.5833 29.1176 34.5833 27.7034 34.5833 24.875V24.0417H24.3333C23.2876 24.0417 22.7647 24.0417 22.3319 23.9445C20.8229 23.6056 19.6444 22.4271 19.3055 20.9181C19.2083 20.4853 19.2083 19.9624 19.2083 18.9167C19.2083 17.8709 19.2083 17.3481 19.3055 16.9153C19.6444 15.4062 20.8229 14.2277 22.3319 13.8889C22.7647 13.7917 23.2876 13.7917 24.3333 13.7917H34.5833V6.125C34.5833 3.29657 34.5833 1.88236 33.7047 1.00368C32.826 0.125 31.4118 0.125 28.5833 0.125H6.41667C3.58824 0.125 2.17403 0.125 1.29535 1.00368ZM8.95834 7.66667C8.40605 7.66667 7.95834 8.11438 7.95834 8.66667C7.95834 9.21895 8.40605 9.66667 8.95834 9.66667H14.0833C14.6356 9.66667 15.0833 9.21895 15.0833 8.66667C15.0833 8.11438 14.6356 7.66667 14.0833 7.66667H8.95834Z" fill="#0066EA"/>
</svg>

<svg xmlns="http://www.w3.org/2000/svg" fill="none" viewBox="0 0 35 31">
  <path fill="#0066EA" fill-rule="evenodd" d="M1.295 1.004C.417 1.882.417 3.297.417 6.125v18.75c0 2.828 0 4.243.878 5.121.879.879 2.293.879 5.122.879h22.166c2.829 0 4.243 0 5.122-.879.878-.878.878-2.293.878-5.121v-.833h-10.25c-1.045 0-1.568 0-2.001-.098a4 4 0 01-3.027-3.026c-.097-.433-.097-.956-.097-2.001 0-1.046 0-1.569.098-2.002a4 4 0 013.026-3.026c.433-.097.956-.097 2.001-.097h10.25V6.125c0-2.828 0-4.243-.878-5.121-.879-.879-2.293-.879-5.122-.879H6.417c-2.829 0-4.243 0-5.122.879zm7.663 6.663a1 1 0 100 2h5.125a1 1 0 100-2H8.958z" clip-rule="evenodd"/>
</svg>
